X:124
%%etbk:tnset id:44,pos:1,rep:3x,ant:
%%etbk:wsite http://www.thesession.org/tunes/display/570
%%etbk:pldat 2016-05-26T18:23,2015-03-25T18:33,2015-02-02T19:16,2014-04-27T13:20,2014-03-15T16:17,2014-02-16T14:05,2013-10-04T15:12,2013-05-21T17:37
T: Sailor's Bonnet, The
Z: Piano Box Version by Martin Fleischmann
H: Created 2013-02-19 /  Last Modified 2013-02-19
M: 4/4
L: 1/8
R: reel
K: Dmaj
|: "D"!3!A2 !2!F!3!A !5!d2!3!f{g}f | !1!d!3!fef !1!d!2!BB{d}B | !1!A2!2!F!3!A !5!d!3!fef | "A"!1!d!2!B!1!A!2!F "D"!3!A!1!DD2 :|
|: "D"!4!a3b !4!a!2!f!1!d!3!f | !5!a!3!fef "bm"!1!d2!1!BB | !2![f2B]!5!ba [b3B]a | !2!fbaf "A"!2!f!1!e!2!e!1!e |
"D"!5!b!3!f!2!f!3!f !4!a!3!f!2!f!3!f | !3!fgfe !1!d!2!BB{d}B | !1!A2!2!F!3!A !5!d!3!fef | "A"!1!d!2!B!1!A!2!F "D"!3!A!1!DD2 :||


